packages/icons/svg/Fill/people.svg

<svg fill="none" height="24" viewBox="0 0 24 24" width="24" xmlns="http://www.w3.org/2000/svg"><path clip-rule="evenodd" d="m9.00002 11c2.20598 0 3.99998-1.794 3.99998-4s-1.794-4-3.99998-4c-2.20601 0-4.00001 1.794-4.00001 4s1.794 4 4.00001 4zm7.99998 1.9999c1.654 0 3-1.346 3-2.99996 0-1.65401-1.346-3.00001-3-3.00001s-3 1.346-3 3.00001c0 1.65396 1.346 2.99996 3 2.99996zm5 6c0 .552-.447 1-1 1h-5c0 .552-.447 1-1 1h-11.99998c-.553 0-1-.448-1-1 0-3.86 3.141-7 7-7 1.92698 0 3.67298.783 4.93998 2.046.869-.672 1.939-1.046 3.06-1.046 2.757 0 5 2.243 5 5z" fill="#6b7280" fill-rule="evenodd"/></svg>

<svg width="24" height="24" viewBox="0 0 24 24" fill="none" xmlns="http://www.w3.org/2000/svg">
<g id="Icon/Fill/people">
<path id="Mask" fill-rule="evenodd" clip-rule="evenodd" d="M9 11C11.206 11 13 9.206 13 7C13 4.794 11.206 3 9 3C6.794 3 5 4.794 5 7C5 9.206 6.794 11 9 11ZM17 13C18.654 13 20 11.654 20 10C20 8.346 18.654 7 17 7C15.346 7 14 8.346 14 10C14 11.654 15.346 13 17 13ZM22 19C22 19.552 21.553 20 21 20H16C16 20.552 15.553 21 15 21H3C2.447 21 2 20.552 2 20C2 16.14 5.141 13 9 13C10.927 13 12.673 13.783 13.94 15.046C14.809 14.374 15.879 14 17 14C19.757 14 22 16.243 22 19Z" fill="#000000"/>
</g>
</svg>
